!!!OTL: Fan luosuo wugeng
!!!ARE: Asia, China,ˇHeilongjiang, Qiqihaer
!! III, 64
!!!SCT: C1547
!!!YEM: Copyright 1995, estate of Helmut Schaffrath.
**kern
*ICvox
*Ivox
*M4/4
*k[f#c#]
*D:
{8b
8b
8f#
8a
4b
4b
=1
8a
8a
8f#
8a
2b}
=2
{8a
8b
4dd
8b
8a
8a
8f#
=3
8a
8f#
8e
8d
8f#
8a
8a
8e
=4
2.f#
4r}
=5
{4r
4b
8b
8f#
4a
=6
4.dd
8b
8a
8f#
4a}
=7
{4r
4b
8a
8f#
8b
8a
=8
4.dd
8b
8a
8f#
4a}
=9
{4r
4f#
4a
8b
8a
=10
4.dd
8b
8a
8f#
4a}
=11
{4r
4b
4a
8b
8a
=12
4.dd
8b
8a
8f#
4a}
=13
{4r
4b
4d
4e
=14
4.a
8e
8f#
8e
4f#}
=15
{4r
4b
4d
4e
=16
4.a
8e
8f#
8e
4f#}
=17
{8r
4ff#
8ee
4dd
8dd
8b
=18
8r
4ff#
8ee
4dd
4dd}
=19
{8.b
16a
8b
8b
4dd
4dd
=20
4b
4b
4d
4a
=21
2f#
8e
8B
4d}
=22
{4r
4f#
4e
4d
=23
4b
8b
8dd
8a
8b
8ee
8cc#
=24
2.b
4r}
==
!!!AGN: Xiaodiao. NannÅ qing
!!!AMT: simple quadruple
!!!AIN: vox
!!!EED: Helmut Schaffrath
!!!EEV: 1.0
*-
